X: 1
T: The Liverpool
R: hornpipe
M: 4/4
L: 1/8
K: Dmaj
|:AG|FDFA dfaf|gfec dcBA|G2BG F2AF|EDEF GFED|
FDFA dfaf|gfec dcBA|dfaf bgec|d2 d2 d2:|
|:A2|d2fd c2dc|BABc dcBA|G2BG F2AF|EDEF GFED|
FDFA dfaf|gfec dcBA|dfaf bgec|d2 d2 d2:|
|:A2|dfdf cece|Bcde dcBA|GBGB FAFA|EFGA GFED|
FDFA dfaf|gefd dcBA|afdf gece|d2 d2 d2:|


Tune 1500	Setting 26112

